X:120
T: Kua gu diao
N: C1614
O: China,Anhui, Fengtai
S: III, 588]
R: Wuge, Huagudeng]
M: 2/4
L: 1/16
K: G
B2A2G2A2 | B2A2B4 | A2G4A2 | B4d4 | d2d2B2A2 | G8 |
B2A2G2E2- | E2A4A2 | G2G6 | A2BAG4 |
z4A4 | E3GG2B2 | E2B2A4- | A2A2E2E2 | G8 |
A6e2 | E3EG4 | A2BAG4

@@@ Tune index: 6675
